gama.ui.shared/icons_svg/dark/views/open.browser.svg

<svg height="25" viewBox="-706.483 -3025.285 25 25" width="25" xmlns="http://www.w3.org/2000/svg"><g fill="none"><path d="m-702.14276-3024.7847h16.32c2.12076 0 3.84 1.7192 3.84 3.84v16.32c0 2.1207-1.71924 3.84-3.84 3.84h-16.32c-2.12074 0-3.84-1.7193-3.84-3.84v-16.32c0-2.1208 1.71926-3.84 3.84-3.84z" fill="#666"/><path d="m-702.14276-3024.7847h16.32c2.12076 0 3.84 1.7192 3.84 3.84v16.32c0 2.1207-1.71924 3.84-3.84 3.84h-16.32c-2.12074 0-3.84-1.7193-3.84-3.84v-16.32c0-2.1208 1.71926-3.84 3.84-3.84z" stroke="#fff" stroke-linecap="round" stroke-linejoin="round" stroke-width=".25"/><path d="m-691.3161-3011.007v-3.5555h-5.3333v3.5555zm0 .889h-5.3333v3.5555h5.3333zm-9.77776-.889h3.55556v-3.5555h-3.55556zm0 .889v2.222c0 .738.59556 1.3335 1.33336 1.3335h2.2222v-3.5555zm14.2222-.889v-3.5555h-3.55554v3.5555zm0 .889h-3.55554v3.5555h2.2222c.7378 0 1.33334-.5955 1.33334-1.3335zm-4.44444-5.3334v-3.5556h-5.3333v3.5556zm-9.77776 0h3.55556v-3.5556h-2.2222c-.7378 0-1.33336.5956-1.33336 1.3334zm14.2222 0v-2.2222c0-.7378-.59554-1.3334-1.33334-1.3334h-2.2222v3.5556zm-12.88884-4.4446h11.5555c1.2267 0 2.2222.9957 2.2222 2.2224v9.7776c0 1.2268-.9955 2.2224-2.2222 2.2224h-11.5555c-1.2267 0-2.22225-.9956-2.22225-2.2224v-9.7776c0-1.2267.99555-2.2224 2.22225-2.2224z" fill="#c0e0ff"/></g></svg>

<?xml version="1.0" encoding="UTF-8" standalone="no"?>
<!DOCTYPE svg PUBLIC "-//W3C//DTD SVG 1.1//EN" "http://www.w3.org/Graphics/SVG/1.1/DTD/svg11.dtd">
<svg xmlns="http://www.w3.org/2000/svg" xmlns:xl="http://www.w3.org/1999/xlink" version="1.1" xmlns:dc="http://purl.org/dc/elements/1.1/" viewBox="-706.48276 -3025.2847 25 25" width="25" height="25">
  <defs/>
  <g id="SOURCES" stroke-opacity="1" fill="none" stroke="none" fill-opacity="1" stroke-dasharray="none">
    <title>SOURCES</title>
    <g id="SOURCES_Dark">
      <title>Dark</title>
      <g id="Graphic_11095">
        <path d="M -702.14276 -3024.7847 L -685.82276 -3024.7847 C -683.702 -3024.7847 -681.98276 -3023.0655 -681.98276 -3020.9447 L -681.98276 -3004.6247 C -681.98276 -3002.504 -683.702 -3000.7847 -685.82276 -3000.7847 L -702.14276 -3000.7847 C -704.2635 -3000.7847 -705.98276 -3002.504 -705.98276 -3004.6247 L -705.98276 -3020.9447 C -705.98276 -3023.0655 -704.2635 -3024.7847 -702.14276 -3024.7847 Z" fill="#666"/>
        <path d="M -702.14276 -3024.7847 L -685.82276 -3024.7847 C -683.702 -3024.7847 -681.98276 -3023.0655 -681.98276 -3020.9447 L -681.98276 -3004.6247 C -681.98276 -3002.504 -683.702 -3000.7847 -685.82276 -3000.7847 L -702.14276 -3000.7847 C -704.2635 -3000.7847 -705.98276 -3002.504 -705.98276 -3004.6247 L -705.98276 -3020.9447 C -705.98276 -3023.0655 -704.2635 -3024.7847 -702.14276 -3024.7847 Z" stroke="white" stroke-linecap="round" stroke-linejoin="round" stroke-width=".25"/>
      </g>
      <g id="Graphic_11094">
        <path d="M -691.3161 -3011.007 L -691.3161 -3014.5625 L -696.6494 -3014.5625 L -696.6494 -3011.007 Z M -691.3161 -3010.118 L -696.6494 -3010.118 L -696.6494 -3006.5625 L -691.3161 -3006.5625 Z M -701.09386 -3011.007 L -697.5383 -3011.007 L -697.5383 -3014.5625 L -701.09386 -3014.5625 Z M -701.09386 -3010.118 L -701.09386 -3007.896 C -701.09386 -3007.158 -700.4983 -3006.5625 -699.7605 -3006.5625 L -697.5383 -3006.5625 L -697.5383 -3010.118 Z M -686.87166 -3011.007 L -686.87166 -3014.5625 L -690.4272 -3014.5625 L -690.4272 -3011.007 Z M -686.87166 -3010.118 L -690.4272 -3010.118 L -690.4272 -3006.5625 L -688.205 -3006.5625 C -687.4672 -3006.5625 -686.87166 -3007.158 -686.87166 -3007.896 Z M -691.3161 -3015.4514 L -691.3161 -3019.007 L -696.6494 -3019.007 L -696.6494 -3015.4514 Z M -701.09386 -3015.4514 L -697.5383 -3015.4514 L -697.5383 -3019.007 L -699.7605 -3019.007 C -700.4983 -3019.007 -701.09386 -3018.4114 -701.09386 -3017.6736 Z M -686.87166 -3015.4514 L -686.87166 -3017.6736 C -686.87166 -3018.4114 -687.4672 -3019.007 -688.205 -3019.007 L -690.4272 -3019.007 L -690.4272 -3015.4514 Z M -699.7605 -3019.896 L -688.205 -3019.896 C -686.9783 -3019.896 -685.9828 -3018.9003 -685.9828 -3017.6736 L -685.9828 -3007.896 C -685.9828 -3006.6692 -686.9783 -3005.6736 -688.205 -3005.6736 L -699.7605 -3005.6736 C -700.9872 -3005.6736 -701.98275 -3006.6692 -701.98275 -3007.896 L -701.98275 -3017.6736 C -701.98275 -3018.9003 -700.9872 -3019.896 -699.7605 -3019.896 Z" fill="#c0e0ff"/>
      </g>
    </g>
  </g>
</svg>
